X: 1
T: Reel Saint-Joseph
O: Qu\'ebec
R: reel
Z: 2010 John Chambers <jc:trillian.mit.edu>
B: Portland Collection
M: C|
L: 1/8
%%musicspace 4pt
K: D
|: A2 |:\
"D"defd "A7"cdec | "D"defd A2dc |\
"G"B2gf edcB |1,3 "A"Aaab agfe :|2,4 "A7"Agec "D"d2 :|
|: de |:\
"D(Bm)"f2fg fedc | "G"BAG2 "Em"g3f |\
"A7"e2ef edcB |1,3 Aaab agfe :|2,4 "A7"Agec "D"d2 :|
